X: 11131
T: The Scots Recluse
C: James Oswald
%R: air, strathspey
B: James Oswald "The Caledonian Pocket Companion" v.1 b.1 p.13 #1
Z: 2020 John Chambers <jc:trillian.mit.edu>
M: C
L: 1/8
K: D
%%slurgraces 1
%%graceslurs 1
"_Slow"A |\
d3c B2 (B/c/d) | AFE>D D3E | (FEF)A B2cd | ecTB>A A3A |\
d3c B2 (B/c/d) | AFED D3E | (FEF)A Bdef | A2(Te>d) d3 :|
|: A |\
d3c B2(B/c/d) | BAGF G3A | B2cde3d | c2(TB>A) A3A |\
dfa=c B3f | gBed {d}c3B | AGFG A2d>e | {de}f2(Te>d) d3 :|


